static/img/kroki/487429a970cd06014f23aa27d4508042.svg

<?xml version="1.0" encoding="us-ascii" standalone="no"?><svg xmlns="http://www.w3.org/2000/svg" xmlns:xlink="http://www.w3.org/1999/xlink" contentStyleType="text/css" height="374px" preserveAspectRatio="none" style="width:331px;height:374px;" version="1.1" viewBox="0 0 331 374" width="331px" zoomAndPan="magnify"><defs/><g><!--class azure_monitor_activity_log_alert--><g id="elem_azure_monitor_activity_log_alert"><rect codeLine="23" fill="#3D176E" height="39.7891" id="azure_monitor_activity_log_alert" rx="2.5" ry="2.5" style="stroke:#000D19;stroke-width:0.5;" width="317" x="7" y="328.58"/><ellipse cx="22" cy="348.4745" fill="#ADD1B2" rx="11" ry="11" style="stroke:#181818;stroke-width:1.0;"/><path d="M24.9688,354.1152 Q24.3906,354.412 23.75,354.5527 Q23.1094,354.7089 22.4063,354.7089 Q19.9063,354.7089 18.5781,353.0683 Q17.2656,351.412 17.2656,348.287 Q17.2656,345.162 18.5781,343.5058 Q19.9063,341.8495 22.4063,341.8495 Q23.1094,341.8495 23.75,342.0058 Q24.4063,342.162 24.9688,342.4589 L24.9688,345.1777 Q24.3438,344.5995 23.75,344.3339 Q23.1563,344.0527 22.5313,344.0527 Q21.1875,344.0527 20.5,345.1308 Q19.8125,346.1933 19.8125,348.287 Q19.8125,350.3808 20.5,351.4589 Q21.1875,352.5214 22.5313,352.5214 Q23.1563,352.5214 23.75,352.2558 Q24.3438,351.9745 24.9688,351.3964 L24.9688,354.1152 Z " fill="#000000"/><text fill="#D9B8FF" font-family="Helvetica" font-size="17" lengthAdjust="spacing" textLength="275" x="41" y="354.3598">azure_monitor_activity_log_alert</text></g><!--class microsoft_resource--><g id="elem_microsoft_resource"><rect codeLine="26" fill="#3D176E" height="39.7891" id="microsoft_resource" rx="2.5" ry="2.5" style="stroke:#000D19;stroke-width:0.5;" width="200" x="65.5" y="167.79"/><ellipse cx="80.5" cy="187.6845" fill="#ADD1B2" rx="11" ry="11" style="stroke:#181818;stroke-width:1.0;"/><path d="M83.4688,193.3252 Q82.8906,193.622 82.25,193.7627 Q81.6094,193.9189 80.9063,193.9189 Q78.4063,193.9189 77.0781,192.2783 Q75.7656,190.622 75.7656,187.497 Q75.7656,184.372 77.0781,182.7158 Q78.4063,181.0595 80.9063,181.0595 Q81.6094,181.0595 82.25,181.2158 Q82.9063,181.372 83.4688,181.6689 L83.4688,184.3877 Q82.8438,183.8095 82.25,183.5439 Q81.6563,183.2627 81.0313,183.2627 Q79.6875,183.2627 79,184.3408 Q78.3125,185.4033 78.3125,187.497 Q78.3125,189.5908 79,190.6689 Q79.6875,191.7314 81.0313,191.7314 Q81.6563,191.7314 82.25,191.4658 Q82.8438,191.1845 83.4688,190.6064 L83.4688,193.3252 Z " fill="#000000"/><text fill="#D9B8FF" font-family="Helvetica" font-size="17" lengthAdjust="spacing" textLength="158" x="99.5" y="193.5698">microsoft_resource</text></g><!--class resource--><g id="elem_resource"><rect codeLine="29" fill="#3D176E" height="39.7891" id="resource" rx="2.5" ry="2.5" style="stroke:#000D19;stroke-width:0.5;" width="113" x="109" y="7"/><ellipse cx="124" cy="26.8945" fill="#ADD1B2" rx="11" ry="11" style="stroke:#181818;stroke-width:1.0;"/><path d="M126.9688,32.5352 Q126.3906,32.832 125.75,32.9727 Q125.1094,33.1289 124.4063,33.1289 Q121.9063,33.1289 120.5781,31.4883 Q119.2656,29.832 119.2656,26.707 Q119.2656,23.582 120.5781,21.9258 Q121.9063,20.2695 124.4063,20.2695 Q125.1094,20.2695 125.75,20.4258 Q126.4063,20.582 126.9688,20.8789 L126.9688,23.5977 Q126.3438,23.0195 125.75,22.7539 Q125.1563,22.4727 124.5313,22.4727 Q123.1875,22.4727 122.5,23.5508 Q121.8125,24.6133 121.8125,26.707 Q121.8125,28.8008 122.5,29.8789 Q123.1875,30.9414 124.5313,30.9414 Q125.1563,30.9414 125.75,30.6758 Q126.3438,30.3945 126.9688,29.8164 L126.9688,32.5352 Z " fill="#000000"/><text fill="#D9B8FF" font-family="Helvetica" font-size="17" lengthAdjust="spacing" textLength="71" x="143" y="32.7798">resource</text></g><!--reverse link microsoft_resource to azure_monitor_activity_log_alert--><g id="link_microsoft_resource_azure_monitor_activity_log_alert"><path codeLine="32" d="M165.5,225.84 C165.5,256.36 165.5,297.69 165.5,328.25 " fill="none" id="microsoft_resource-backto-azure_monitor_activity_log_alert" style="stroke:#FFAF37;stroke-width:2.0;"/><polygon fill="none" points="165.5,207.84,159.5,225.84,171.5,225.84,165.5,207.84" style="stroke:#FFAF37;stroke-width:2.0;"/></g><!--reverse link resource to microsoft_resource--><g id="link_resource_microsoft_resource"><path codeLine="33" d="M165.5,65.05 C165.5,95.57 165.5,136.9 165.5,167.46 " fill="none" id="resource-backto-microsoft_resource" style="stroke:#FFAF37;stroke-width:2.0;"/><polygon fill="none" points="165.5,47.05,159.5,65.05,171.5,65.05,165.5,47.05" style="stroke:#FFAF37;stroke-width:2.0;"/></g><!--SRC=[XT1DJm9130RW-_wAIJYJW4I1n0kG6BqG8zutPQR3JjYPaauN0kf_LmJDiCl7jNtIlctX32hqAzagZtwE7BEuT64535wDc6apeP9OjQm5s-lNcqyKv2QOWaVrZEKQnMceY_V2wMN06DLTqXg3NYwOgc0EuuKXn9yM1adKf8GOHoBivfLW4iOCvmDhwx8-jDKptVu3DXYnGJwIJgTZkiCwkRdgwjt_OkPsgBhfqwOas8ZPMF6hhgRSYoHauz2__iMChs2C2mjrdzJU3fau89_KPmKOskorXJAcQw8W8ybsXPF6LJWS6Di_YrykuKplNwTWLp7cde8JuXoqkBMJRLxI8eSIMTH7bdqThNUQAPALd35InHhJxcdjZ7tyRBVRDnTcDTySb7q3]--></g></svg>

<svg xmlns="http://www.w3.org/2000/svg" width="331" height="374" viewBox="0 0 331 374"><rect width="317" height="39.789" x="7" y="328.58" fill="#3D176E" rx="2.5" ry="2.5" style="stroke:#000d19;stroke-width:.5"/><circle cx="22" cy="348.474" r="11" fill="#ADD1B2" style="stroke:#181818;stroke-width:1"/><path d="M24.969 354.115q-.578.297-1.219.438-.64.156-1.344.156-2.5 0-3.828-1.64-1.312-1.657-1.312-4.782t1.312-4.781q1.328-1.656 3.828-1.656.703 0 1.344.156.656.156 1.219.453v2.719q-.625-.579-1.219-.844-.594-.281-1.219-.281-1.343 0-2.031 1.078-.687 1.062-.687 3.156t.687 3.172q.688 1.062 2.031 1.062.625 0 1.219-.265.594-.281 1.219-.86z"/><text x="41" y="354.36" fill="#D9B8FF" font-family="Helvetica" font-size="17" textLength="275">azure_monitor_activity_log_alert</text><rect width="200" height="39.789" x="65.5" y="167.79" fill="#3D176E" rx="2.5" ry="2.5" style="stroke:#000d19;stroke-width:.5"/><circle cx="80.5" cy="187.685" r="11" fill="#ADD1B2" style="stroke:#181818;stroke-width:1"/><path d="M83.469 193.325q-.578.297-1.219.438-.64.156-1.344.156-2.5 0-3.828-1.64-1.312-1.657-1.312-4.782t1.312-4.781q1.328-1.656 3.828-1.656.703 0 1.344.156.656.156 1.219.453v2.719q-.625-.578-1.219-.844-.594-.281-1.219-.281-1.344 0-2.031 1.078-.687 1.062-.687 3.156t.687 3.172q.688 1.062 2.031 1.062.625 0 1.219-.265.594-.281 1.219-.86z"/><text x="99.5" y="193.57" fill="#D9B8FF" font-family="Helvetica" font-size="17" textLength="158">microsoft_resource</text><rect width="113" height="39.789" x="109" y="7" fill="#3D176E" rx="2.5" ry="2.5" style="stroke:#000d19;stroke-width:.5"/><circle cx="124" cy="26.895" r="11" fill="#ADD1B2" style="stroke:#181818;stroke-width:1"/><path d="M126.969 32.535q-.578.297-1.219.438-.64.156-1.344.156-2.5 0-3.828-1.64-1.312-1.657-1.312-4.782t1.312-4.781q1.328-1.656 3.828-1.656.703 0 1.344.156.656.156 1.219.453v2.719q-.625-.578-1.219-.844-.594-.281-1.219-.281-1.344 0-2.031 1.078-.687 1.062-.687 3.156t.687 3.172q.688 1.062 2.031 1.062.625 0 1.219-.265.594-.281 1.219-.86z"/><text x="143" y="32.78" fill="#D9B8FF" font-family="Helvetica" font-size="17" textLength="71">resource</text><path fill="none" d="M165.5 225.84v102.41m0-120.41-6 18h12zm0-142.79v102.41m0-120.41-6 18h12z" style="stroke:#ffaf37;stroke-width:2"/></svg>
